build/logo/OpenSearchOutline.svg

<svg xmlns="http://www.w3.org/2000/svg" fill="none" viewBox="0 0 24 24" focusable="false"><path d="M0 0H24V24H0z"/><path fill="#74767B" fill-rule="evenodd" d="M10.9824 2.9767C10.8115 2.98087 10.6396 2.99312 10.4688 3.01349C10.0205 3.06685 9.60645 3.1882 9.22559 3.37758C9.07422 3.45291 8.92773 3.539 8.78711 3.63583C8.5166 3.82205 8.28125 4.037 8.08105 4.28072C7.93262 4.46091 7.80273 4.65681 7.69336 4.86845C7.54102 5.16081 7.43555 5.46196 7.37793 5.7719C7.33789 5.98827 7.32129 6.20892 7.32617 6.43385C7.33301 6.69144 7.37012 6.94069 7.43652 7.18163C7.51855 7.47757 7.64648 7.76097 7.81836 8.03181C8.15625 8.5607 8.69043 8.9818 9.4209 9.29509C9.68359 9.4075 9.98828 9.51324 10.334 9.61232C10.5326 9.66905 10.8226 9.74366 11.2041 9.83614C11.2119 9.83769 11.3105 9.86003 11.3281 9.86337C11.8193 9.95583 12.2314 10.0537 12.5654 10.157C13.1543 10.3393 13.6631 10.571 14.0908 10.8521C14.6172 11.1978 15.0146 11.6145 15.2832 12.1021C15.6094 12.7013 15.7539 13.4314 15.7012 14.2593C15.6895 14.4384 15.7432 14.5954 15.8623 14.7301C15.9805 14.8649 16.1289 14.938 16.3086 14.9495C16.4277 14.9571 16.54 14.9338 16.6465 14.8794C16.752 14.8251 16.8369 14.7474 16.9004 14.6464C17.0996 14.3295 17.2734 14.0015 17.4229 13.6626C17.5908 13.2808 17.7269 12.885 17.8311 12.4754C17.9287 12.0948 17.9961 11.7112 18.0332 11.3248C18.0723 10.9264 18.0801 10.5249 18.0557 10.1203C18.0361 9.74811 17.9893 9.38135 17.916 9.02007C17.7881 8.39137 17.5791 7.77925 17.2881 7.1837C17.0654 6.72785 16.8047 6.30063 16.5059 5.90204C16.2227 5.52502 15.9063 5.17361 15.5547 4.84784C14.9141 4.25317 14.2155 3.79518 13.459 3.47385C13.3672 3.43497 13.2744 3.39809 13.1816 3.3632C12.4453 3.08784 11.7119 2.95901 10.9824 2.9767ZM9.69531 4.59999C9.97168 4.4436 10.2803 4.34506 10.6221 4.30438C10.6963 4.29565 10.7695 4.28889 10.8428 4.2841C11.4619 4.24382 12.0889 4.34274 12.7256 4.58086C13.4082 4.84442 14.0938 5.2655 14.6709 5.80072C14.9629 6.07156 15.2266 6.36362 15.4619 6.67688C15.7129 7.0117 15.9326 7.37076 16.1201 7.75404C16.3558 8.23776 16.5273 8.735 16.6348 9.24577C16.7002 9.55803 16.7412 9.87535 16.7578 10.1977C16.7783 10.5349 16.7715 10.8694 16.7393 11.2013C16.7158 11.4369 16.6797 11.6712 16.6299 11.9043C16.5898 11.8096 16.5469 11.7166 16.501 11.6251C16.4801 11.5829 16.4574 11.5396 16.4346 11.4981C16.3857 11.4078 16.334 11.3193 16.2783 11.2328C15.916 10.6619 15.4248 10.1728 14.8047 9.76547C14.2741 9.41708 13.6556 9.13363 12.9492 8.91512C12.5684 8.79721 12.1084 8.68744 11.5693 8.58585C11.2051 8.49754 10.873 8.41434 10.6924 8.36247C10.3984 8.27844 10.1455 8.19099 9.93359 8.10013C9.44824 7.89215 9.1084 7.63644 8.91504 7.33302C8.80664 7.16353 8.72949 6.98625 8.68164 6.80121C8.64844 6.67136 8.62988 6.53767 8.62598 6.40015C8.62305 6.28665 8.63086 6.17471 8.64746 6.06436C8.67969 5.86046 8.74512 5.66193 8.8457 5.46875C8.90625 5.35252 8.97656 5.24384 9.05664 5.14268C9.18652 4.97711 9.34277 4.83176 9.52441 4.70662C9.58008 4.66852 9.63672 4.63297 9.69531 4.59999ZM10.8125 18.3988C10.6406 18.4208 10.4678 18.4346 10.2949 18.4403C9.55729 18.4644 8.8138 18.3402 8.06641 18.0676C7.97266 18.0334 7.87956 17.9971 7.78711 17.9588C7.01823 17.64 6.30599 17.182 5.65234 16.5854C5.29492 16.2587 4.97135 15.9058 4.68164 15.5267C4.3763 15.1259 4.10905 14.6958 3.87988 14.2364C3.58105 13.6363 3.36426 13.0188 3.22949 12.3839C3.15234 12.0189 3.10156 11.6481 3.0791 11.2716C3.05111 10.8625 3.05501 10.4562 3.09082 10.0528C3.12598 9.66158 3.19108 9.27287 3.28613 8.88701C3.38835 8.47162 3.52279 8.07007 3.68945 7.68234C3.83789 7.33825 4.01139 7.00505 4.20996 6.68274C4.27246 6.58121 4.35645 6.50284 4.46191 6.44762C4.56836 6.39241 4.68066 6.36812 4.7998 6.37477C4.889 6.37978 4.97103 6.40025 5.0459 6.4362C5.12077 6.47215 5.18815 6.52357 5.24805 6.59047C5.36719 6.72427 5.42188 6.88078 5.41211 7.06C5.36523 7.90054 5.51953 8.64186 5.85547 9.24742C6.13216 9.73968 6.53874 10.1589 7.0752 10.5051C7.51172 10.7866 8.0293 11.0174 8.62891 11.1973C8.96777 11.2993 9.38672 11.3951 9.88477 11.4847C9.90234 11.4878 10.002 11.5096 10.0107 11.5111C10.3975 11.6016 10.6914 11.6747 10.8926 11.7305C11.2441 11.8279 11.5527 11.9323 11.8193 12.0438C12.5609 12.3544 13.1042 12.7754 13.4492 13.3068C13.626 13.5791 13.7568 13.8644 13.8418 14.1627C13.9111 14.4055 13.9502 14.6569 13.96 14.9169C13.9678 15.144 13.9521 15.367 13.9131 15.5858C13.8574 15.8995 13.7539 16.2047 13.6025 16.5014C13.4932 16.7161 13.3643 16.915 13.2158 17.0982C13.0146 17.3462 12.7783 17.5655 12.5068 17.7559C12.3652 17.8548 12.2188 17.9429 12.0674 18.0202C11.6836 18.2149 11.2656 18.3411 10.8125 18.3988ZM20.8145 11.9259C20.958 11.1965 21.0312 10.4531 21.0342 9.69577C21.0361 9.33177 20.751 9.04472 20.3867 9.04338C20.0225 9.04204 19.7363 9.327 19.7344 9.69099C19.7324 10.3667 19.666 11.0299 19.5371 11.6805C19.416 12.2924 19.2393 12.8932 19.0068 13.483C18.749 14.1357 18.4326 14.7503 18.0566 15.3267C17.7344 15.8221 17.3682 16.2893 16.959 16.7283C16.4473 17.2502 15.8926 17.7075 15.2959 18.1004C14.7754 18.443 14.2227 18.7365 13.6377 18.981C12.9906 19.2513 12.3304 19.4509 11.6572 19.5797C11.0205 19.7015 10.3711 19.7601 9.70996 19.7556C9.34668 19.7531 9.05859 20.0371 9.05566 20.4011C9.05371 20.7651 9.33789 21.053 9.70117 21.0555C10.4512 21.0607 11.1865 20.994 11.9082 20.8555C12.667 20.7099 13.4102 20.4849 14.1387 20.1805C14.8047 19.9022 15.4336 19.5676 16.0254 19.1768C16.6953 18.7342 17.3291 18.2081 17.9043 17.6212C18.3717 17.1205 18.7891 16.5873 19.1562 16.0214C19.5742 15.3767 19.9277 14.6897 20.2158 13.9604C20.4785 13.2948 20.6777 12.6166 20.8145 11.9259ZM10.6484 17.1092C10.9951 17.0651 11.3076 16.9626 11.5879 16.8017C11.6465 16.7675 11.7041 16.7307 11.7607 16.6912C11.9443 16.5626 12.1016 16.4136 12.2334 16.2443C12.3135 16.1407 12.3838 16.0295 12.4443 15.9106C12.5449 15.7135 12.6104 15.5112 12.6416 15.3038C12.6582 15.1911 12.6641 15.077 12.6602 14.9613C12.6553 14.8213 12.6357 14.6853 12.6006 14.5533C12.5508 14.3656 12.4697 14.186 12.3584 14.0146C12.1592 13.7075 11.8125 13.4502 11.3174 13.243C11.1016 13.1526 10.8438 13.066 10.5459 12.9832C10.3613 12.9322 10.0244 12.8505 9.6543 12.7641C9.10742 12.6658 8.6416 12.5585 8.25488 12.4423C7.53809 12.2271 6.91016 11.9455 6.37109 11.5975C5.74023 11.1905 5.23893 10.6997 4.86719 10.125C4.8112 10.0384 4.75814 9.94962 4.70801 9.85915C4.68457 9.81741 4.66211 9.77533 4.64062 9.73291C4.58887 9.6324 4.54102 9.52997 4.49707 9.42563C4.44564 9.67099 4.40885 9.91765 4.38672 10.1656C4.35645 10.5025 4.35254 10.8418 4.37598 11.1835C4.39551 11.5102 4.44043 11.8316 4.50879 12.1476C4.62207 12.6648 4.7998 13.1678 5.04395 13.6565C5.23633 14.0436 5.46191 14.4058 5.71973 14.7433C5.96094 15.059 6.23047 15.353 6.5293 15.6253C7.11816 16.1629 7.81836 16.5846 8.51172 16.8463C9.15951 17.0824 9.79688 17.1776 10.4238 17.1317C10.499 17.1263 10.5742 17.1188 10.6484 17.1092Z"/></svg>

<svg xmlns="http://www.w3.org/2000/svg" fill="none" viewBox="0 0 24 24" focusable="false"><path fill="#74767B" fill-rule="evenodd" d="M10.98 2.97c-.17.01-.35.02-.52.04-.44.05-.86.17-1.24.36-.15.08-.3.16-.44.26-.27.19-.5.4-.7.65-.15.18-.28.37-.39.58-.15.3-.26.6-.32.91-.04.21-.05.43-.05.66.01.26.05.51.11.75.08.29.21.58.38.85.34.53.88.95 1.61 1.26.26.11.56.22.91.32.2.05.49.13.87.22.01 0 .11.03.12.03.49.09.91.19 1.24.29.59.18 1.1.42 1.53.7.52.34.92.76 1.19 1.25.32.6.47 1.33.42 2.15-.02.18.04.34.16.48.12.13.26.2.44.21.12.01.24-.01.34-.07a.64.64 0 0 0 .26-.23c.19-.32.37-.64.52-.98.17-.38.3-.78.41-1.19.09-.38.16-.76.2-1.15.04-.4.05-.8.02-1.2-.02-.38-.07-.74-.14-1.1-.13-.63-.34-1.25-.63-1.84-.22-.46-.48-.88-.78-1.28-.28-.38-.6-.73-.95-1.06a7.2 7.2 0 0 0-2.1-1.37c-.09-.04-.18-.08-.27-.11a5.7 5.7 0 0 0-2.2-.39M9.69 4.59c.28-.15.59-.25.93-.29.07-.01.14-.02.22-.02.62-.04 1.24.06 1.88.3.68.26 1.37.68 1.95 1.22.29.27.55.56.79.87q.375.51.66 1.08c.23.48.4.98.51 1.49.07.31.11.63.12.95.02.34.02.67-.02 1.01-.02.23-.06.47-.11.7-.04-.1-.08-.19-.12-.28-.02-.04-.05-.09-.07-.13-.05-.09-.1-.18-.16-.26q-.54-.855-1.47-1.47c-.53-.35-1.15-.63-1.86-.85q-.57-.18-1.38-.33c-.36-.09-.69-.17-.87-.22-.3-.09-.55-.17-.76-.26-.49-.21-.83-.47-1.02-.77-.11-.17-.19-.35-.23-.53-.04-.13-.06-.27-.06-.4 0-.12.01-.23.02-.34.03-.2.1-.4.2-.6a2.192 2.192 0 0 1 .68-.76zm1.12 13.8c-.17.03-.35.04-.52.05-.74.02-1.48-.1-2.23-.38-.09-.03-.19-.07-.28-.11-.77-.31-1.48-.77-2.13-1.37-.36-.33-.68-.68-.97-1.06q-.465-.6-.81-1.29a8.5 8.5 0 0 1-.65-1.85q-.105-.555-.15-1.11a8.3 8.3 0 0 1 .21-2.39c.1-.41.24-.81.4-1.2.15-.35.33-.68.52-1 .07-.1.15-.18.26-.24.1-.05.22-.08.33-.07.09 0 .18.03.25.06.08.04.14.09.2.16.12.13.18.29.17.47-.05.84.1 1.58.44 2.18.28.49.68.91 1.22 1.26.44.28.95.51 1.55.69.34.1.76.2 1.26.29.02 0 .12.02.13.03.38.09.68.16.88.22.35.09.66.2.92.31.75.31 1.29.73 1.63 1.26a3.093 3.093 0 0 1 .52 1.61c0 .23-.01.45-.05.67-.06.31-.16.62-.31.92-.11.21-.24.41-.39.59-.2.25-.44.47-.71.66-.14.1-.29.19-.44.27-.38.19-.8.32-1.25.37m10-6.47c.14-.73.22-1.47.22-2.23 0-.36-.28-.65-.65-.65-.36 0-.65.28-.65.65 0 .67-.07 1.33-.2 1.99-.12.61-.3 1.21-.53 1.8a10 10 0 0 1-.95 1.84c-.32.5-.69.96-1.1 1.4-.51.53-1.06.98-1.66 1.38-.52.34-1.07.63-1.66.88-.64.27-1.3.47-1.98.59q-.945.195-1.95.18c-.36 0-.65.28-.65.65 0 .36.28.65.65.65.75.01 1.48-.06 2.2-.2.76-.15 1.51-.37 2.23-.67.67-.28 1.3-.62 1.89-1.01.67-.44 1.3-.97 1.88-1.55.47-.5.88-1.04 1.25-1.6.42-.65.77-1.34 1.06-2.06q.39-1.005.6-2.04M10.64 17.1c.35-.04.66-.14.94-.3.06-.04.12-.07.18-.11.18-.13.34-.28.47-.45.08-.1.15-.22.21-.33.1-.2.17-.4.2-.61.01-.11.02-.23.02-.34-.01-.14-.03-.28-.06-.41a1.9 1.9 0 0 0-.25-.54c-.2-.31-.54-.56-1.04-.77-.21-.09-.47-.18-.77-.26-.18-.05-.52-.13-.89-.22-.55-.1-1.01-.21-1.4-.32-.72-.22-1.34-.5-1.88-.85-.63-.4-1.14-.9-1.51-1.47-.05-.09-.11-.18-.16-.27l-.06-.12c-.06-.1-.1-.21-.15-.31-.05.25-.09.49-.11.74a7 7 0 0 0 .12 1.98c.12.52.29 1.02.54 1.51.19.39.42.75.67 1.09.25.31.52.61.81.88.59.54 1.29.96 1.99 1.22.64.24 1.28.33 1.91.29z"/></svg>
